X:13
T:Jigs 3 - The Fiery Clockface
T:Up the sides and down the middle
L:1/8
M:6/8
K:D
cB | "A"ABc dcB | ABG "Bm"F2A | "G"d2d "A"ede | "Bm"f2f "A"e2A |
ABc dcB | ABG "Bm"F2A | "G"d2d "Em"ede | "A"f2e "D"d :|
fg | "D"a2f d2A | "G"B3-B2f | "Em"g2f e2d | "A"c2B Afg |
"D"a2f d2A | "G"B3-B2f | "Em"g2f e2d | "A"cBc d :|
T: The Fiery Clockface
"D"d2d D2E | F2G A2B | "C"=c2=c E2F | G2A B2"A"c |
"D"d2d D2E | F2G A2B | "G"Bcd "A"e2c |1 "G"d2d "A"ABc :|2 "D"d3 d2e ||
"D"f2f "Bm"def | "Em"g2f e2d | "A"c2B A2B | c2d e2d |
"D"f2f "Bm"def | "Em"g2f e2d | "A"cBA ABc |1 "G"d3 d2e :|2 "D"d3 d3 ||
%%newpage

